Sources/FrostedUI/Resources/Icons.xcassets/rotateRight24.imageset/rotate-right-24.svg

<svg width="24" height="24" viewBox="0 0 24 24" fill="none" xmlns="http://www.w3.org/2000/svg" data-fui-icon="true">
  <path
    d="M11.9141 2.25C16.4698 2.25 19.0743 4.89995 20.25 7.49219V3.9043C20.25 3.49008 20.5858 3.1543 21 3.1543C21.4142 3.1543 21.75 3.49008 21.75 3.9043V9.05762C21.75 10.0385 20.9606 10.8456 19.9717 10.8457H14.8574C14.4432 10.8457 14.1074 10.5099 14.1074 10.0957C14.1077 9.6817 14.4434 9.3457 14.8574 9.3457H19.3252C18.6926 6.8821 16.4798 3.75 11.9141 3.75C6.88694 3.75011 3.75 7.52245 3.75 12C3.75 16.4775 6.88694 20.2499 11.9141 20.25C15.4832 20.25 18.3194 18.1211 19.4795 15.4512C19.6446 15.0713 20.0869 14.8974 20.4668 15.0625C20.8464 15.2277 21.0204 15.6691 20.8555 16.0488C19.4642 19.2507 16.0978 21.75 11.9141 21.75C5.97003 21.7499 2.25 17.2146 2.25 12C2.25 6.78537 5.97003 2.25011 11.9141 2.25Z"
    fill="currentColor"
  />
</svg>

<svg xmlns="http://www.w3.org/2000/svg" width="24" height="24" fill="none" data-fui-icon="true" viewBox="0 0 24 24"><path fill="currentColor" d="M11.914 2.25c4.556 0 7.16 2.65 8.336 5.242V3.904a.75.75 0 0 1 1.5 0v5.154c0 .98-.79 1.788-1.778 1.788h-5.115a.75.75 0 0 1 0-1.5h4.468c-.632-2.464-2.845-5.596-7.41-5.596C6.886 3.75 3.75 7.522 3.75 12s3.137 8.25 8.164 8.25c3.57 0 6.405-2.129 7.566-4.799a.75.75 0 0 1 1.375.598c-1.39 3.202-4.757 5.701-8.94 5.701-5.945 0-9.665-4.535-9.665-9.75s3.72-9.75 9.664-9.75"/></svg>
